X: 11082
T: PADDY O'RAFFERTY
O: Irish air.
Q: "Jig time."
%R: jig
B: W. Hamilton "Universal Tune-Book" Vol. 1 Glasgow 1844 p.108 #2
S: http://imslp.org/wiki/Hamilton's_Universal_Tune-Book_(Various)
Z: 2016 John Chambers <jc:trillian.mit.edu>
N: The 2nd strain has initial but no final repeat; fixed.
M: 6/8
L: 1/8
K: A
% - - - - - - - - - - - - - - - - - - - - - - - - -
|:\
Ecc EBB | Ecc BAB | Ecc EBB | A>BA AFE |\
Ecc EBB | Ecc Bce | fga eca | A>BA AFE :|
|:\
A/B/cE E2F | Adc BAB | A/B/cE E2F | A>BA AFE |\
A/B/cE E2F | Adc BAB | c>BA eca | A>BA AFE :|
% - - - - - - - - - - - - - - - - - - - - - - - - -

%%sep 1 1 500
%%sep 1 1 500

